img/partners/sberbank.svg

<svg width="300" height="46" viewBox="0 0 300 46" fill="none" xmlns="http://www.w3.org/2000/svg">
<path d="M134.165 13.7699L140.426 9.14941H119.464V36.8273H140.426V32.2068H125.453V25.1401H138.248V20.5195H125.453V13.7699H134.165Z" fill="#21A038"/>
<path d="M103.63 19.9306H96.3702V13.7699H107.985L114.247 9.14941H90.3811V36.8273H102.858C109.846 36.8273 113.884 33.6563 113.884 28.1298C113.884 22.8298 110.254 19.9306 103.63 19.9306ZM102.632 32.2068H96.3702V24.5512H102.632C106.443 24.5512 108.212 25.8196 108.212 28.4016C108.212 30.9837 106.307 32.2068 102.632 32.2068Z" fill="#21A038"/>
<path d="M157.395 9.14941H146.007V36.8273H151.996V28.9905H157.441C164.7 28.9905 169.238 25.1854 169.238 19.07C169.238 12.9546 164.7 9.14941 157.395 9.14941ZM157.259 24.37H151.951V13.7699H157.259C161.116 13.7699 163.203 15.6725 163.203 19.07C163.203 22.4674 161.116 24.37 157.259 24.37Z" fill="#21A038"/>
<path d="M80.1275 30.8488C78.5395 31.7095 76.7699 32.1625 74.9551 32.1625C69.5558 32.1625 65.6538 28.3121 65.6538 23.0121C65.6538 17.712 69.5558 13.8616 74.9551 13.8616C76.9061 13.8163 78.8117 14.4505 80.3997 15.583L84.71 12.412L84.4378 12.1402C81.9424 9.92057 78.5848 8.78809 74.7736 8.78809C70.6447 8.78809 66.8788 10.1924 64.1565 12.7291C61.4342 15.3565 59.8916 19.0257 59.9823 22.8309C59.9369 26.6813 61.4342 30.3958 64.1565 33.1138C67.015 35.7865 70.8262 37.2813 74.7282 37.1907C79.0385 37.1907 82.8044 35.6959 85.3453 32.9779L81.4886 30.1241L80.1275 30.8488Z" fill="#21A038"/>
<path d="M241.243 9.19471V36.8726H247.233V25.5478H259.982V36.8726H265.971V9.19471H259.982V20.5648H247.233V9.19471H241.243ZM230.944 36.8726H237.251L225.545 9.19471H219.465L207.532 36.8726H213.567L215.971 31.3008H228.675L230.944 36.8726ZM217.786 26.6802L222.414 15.5819L226.77 26.6802H217.786ZM279.401 25.6837H283.122L292.287 36.8273H300L287.75 22.5127L298.458 9.14941H291.606L282.713 21.0178H279.401V9.14941H273.412V36.8273H279.401V25.6837ZM187.75 19.9759V13.8152H203.403V9.19471H181.761V36.8726H194.238C201.225 36.8726 205.263 33.7016 205.263 28.1751C205.263 22.8751 201.634 19.9759 195.009 19.9759H187.75ZM187.75 32.2521V24.5965H194.011C197.822 24.5965 199.592 25.8649 199.592 28.4469C199.592 31.029 197.732 32.2974 194.011 32.2974H187.75V32.2521Z" fill="#21A038"/>
<path d="M41.2432 8.96875C42.3321 10.373 43.2395 11.9132 44.0109 13.544L23.049 28.991L14.2468 23.4645V16.8508L23.0036 22.332L41.2432 8.96875Z" fill="#21A038"/>
<path d="M5.30852 23.0118C5.30852 22.6947 5.30852 22.4229 5.3539 22.1058L0.045372 21.834C0.045372 22.1964 0 22.6041 0 22.9665C0 29.3084 2.5862 35.0614 6.76043 39.2289L10.5263 35.4691C7.30489 32.2981 5.30852 27.9041 5.30852 23.0118Z" fill="url(#paint0_linear_3206_941)"/>
<path d="M23.0039 5.34592C23.3215 5.34592 23.5938 5.34592 23.9114 5.39121L24.1836 0.0911977C23.8206 0.0911977 23.4123 0.0458984 23.0493 0.0458984C16.6972 0.0458984 10.935 2.62796 6.76074 6.79549L10.5266 10.5553C13.7027 7.33908 18.1491 5.34592 23.0039 5.34592Z" fill="url(#paint1_linear_3206_941)"/>
<path d="M23.0036 40.6787C22.686 40.6787 22.4138 40.6787 22.0962 40.6334L21.824 45.9334C22.187 45.9334 22.5953 45.9787 22.9583 45.9787C29.3104 45.9787 35.0726 43.3966 39.2468 39.2291L35.4809 35.4692C32.3049 38.7308 27.9038 40.6787 23.0036 40.6787Z" fill="url(#paint2_linear_3206_941)"/>
<path d="M32.986 8.42567L37.4778 5.11882C33.5305 1.94787 28.4942 0 23.0042 0V5.30002C26.7247 5.34532 30.1729 6.4778 32.986 8.42567Z" fill="url(#paint3_linear_3206_941)"/>
<path d="M46.0529 23.0114C46.0529 21.6071 45.9168 20.2481 45.6899 18.8892L40.7443 22.5584C40.7443 22.6943 40.7443 22.8755 40.7443 23.0114C40.7443 28.2208 38.4757 32.8866 34.8914 36.1029L38.4757 40.0439C43.1037 35.8764 46.0529 29.761 46.0529 23.0114Z" fill="#21A038"/>
<path d="M23.004 40.6791C17.7862 40.6791 13.1129 38.4141 9.89146 34.8354L5.94409 38.4141C10.1637 43.0799 16.2435 45.9791 23.004 45.9791V40.6791Z" fill="url(#paint4_linear_3206_941)"/>
<path d="M11.1615 9.92004L7.57712 5.979C2.90381 10.1918 0 16.2619 0 23.0115H5.30852C5.30852 17.8474 7.57712 13.1363 11.1615 9.92004Z" fill="url(#paint5_linear_3206_941)"/>
<defs>
<linearGradient id="paint0_linear_3206_941" x1="621.131" y1="1696.84" x2="79.3407" y2="133.264" gradientUnits="userSpaceOnUse">
<stop offset="0.1444" stop-color="#F2E913"/>
<stop offset="0.3037" stop-color="#E7E518"/>
<stop offset="0.5823" stop-color="#CADB26"/>
<stop offset="0.891" stop-color="#A3CD39"/>
</linearGradient>
<linearGradient id="paint1_linear_3206_941" x1="158.081" y1="613.557" x2="1534.79" y2="89.7585" gradientUnits="userSpaceOnUse">
<stop offset="0.0592" stop-color="#0FA8E0"/>
<stop offset="0.5385" stop-color="#0099F9"/>
<stop offset="0.9234" stop-color="#0291EB"/>
</linearGradient>
<linearGradient id="paint2_linear_3206_941" x1="-9.34659" y1="634.308" x2="1631.48" y2="264.056" gradientUnits="userSpaceOnUse">
<stop offset="0.1226" stop-color="#A3CD39"/>
<stop offset="0.2846" stop-color="#86C339"/>
<stop offset="0.8693" stop-color="#21A038"/>
</linearGradient>
<linearGradient id="paint3_linear_3206_941" x1="-86.0656" y1="339.105" x2="1278.48" y2="759.455" gradientUnits="userSpaceOnUse">
<stop offset="0.0566" stop-color="#0291EB"/>
<stop offset="0.79" stop-color="#0C8ACB"/>
</linearGradient>
<linearGradient id="paint4_linear_3206_941" x1="140.921" y1="478.786" x2="1606.18" y2="1025.38" gradientUnits="userSpaceOnUse">
<stop offset="0.1324" stop-color="#F2E913"/>
<stop offset="0.2977" stop-color="#EBE716"/>
<stop offset="0.5306" stop-color="#D9E01F"/>
<stop offset="0.8023" stop-color="#BBD62D"/>
<stop offset="0.9829" stop-color="#A3CD39"/>
</linearGradient>
<linearGradient id="paint5_linear_3206_941" x1="403.929" y1="1773.25" x2="989.797" y2="251.634" gradientUnits="userSpaceOnUse">
<stop offset="0.0698" stop-color="#A3CD39"/>
<stop offset="0.2599" stop-color="#81C55F"/>
<stop offset="0.9216" stop-color="#0FA8E0"/>
</linearGradient>
</defs>
</svg>

<svg width="300" height="46" fill="none" xmlns="http://www.w3.org/2000/svg"><path d="m134.165 13.77 6.261-4.62h-20.962v27.677h20.962v-4.62h-14.973V25.14h12.795v-4.62h-12.795v-6.75h8.712ZM103.63 19.93h-7.26v-6.16h11.615l6.262-4.62H90.381v27.677h12.477c6.988 0 11.026-3.17 11.026-8.697 0-5.3-3.63-8.2-10.254-8.2Zm-.998 12.277H96.37V24.55h6.262c3.811 0 5.58 1.269 5.58 3.85 0 2.583-1.905 3.806-5.58 3.806ZM157.395 9.15h-11.388v27.677h5.989v-7.836h5.445c7.259 0 11.797-3.806 11.797-9.921 0-6.115-4.538-9.92-11.843-9.92Zm-.136 15.22h-5.308v-10.6h5.308c3.857 0 5.944 1.902 5.944 5.3 0 3.397-2.087 5.3-5.944 5.3ZM80.127 30.849a10.833 10.833 0 0 1-5.172 1.314c-5.4 0-9.301-3.85-9.301-9.15 0-5.301 3.902-9.151 9.301-9.151 1.951-.046 3.857.588 5.445 1.721l4.31-3.171-.272-.272c-2.496-2.22-5.853-3.352-9.664-3.352-4.13 0-7.895 1.404-10.618 3.941-2.722 2.628-4.264 6.297-4.174 10.102a14.29 14.29 0 0 0 4.174 10.283c2.859 2.672 6.67 4.167 10.572 4.077 4.31 0 8.076-1.495 10.617-4.213l-3.856-2.854-1.362.725ZM241.243 9.195v27.678h5.99V25.548h12.749v11.325h5.989V9.195h-5.989v11.37h-12.749V9.195h-5.99Zm-10.299 27.678h6.307L225.545 9.195h-6.08l-11.933 27.678h6.035l2.404-5.572h12.704l2.269 5.572ZM217.786 26.68l4.628-11.098 4.356 11.098h-8.984Zm61.615-.996h3.721l9.165 11.143H300l-12.25-14.314 10.708-13.364h-6.852l-8.893 11.869h-3.312V9.149h-5.989v27.678h5.989V25.684Zm-91.651-5.708v-6.16h15.653V9.194h-21.642v27.678h12.477c6.987 0 11.025-3.171 11.025-8.698 0-5.3-3.629-8.2-10.254-8.2h-7.259Zm0 12.276v-7.656h6.261c3.811 0 5.581 1.269 5.581 3.85 0 2.583-1.86 3.851-5.581 3.851h-6.261v-.045ZM41.243 8.969c1.09 1.404 1.996 2.944 2.768 4.575L23.049 28.991l-8.802-5.526V16.85l8.757 5.481 18.24-13.363Z" fill="#21A038"/><path d="M5.309 23.012c0-.317 0-.59.045-.906l-5.309-.272c0 .362-.045.77-.045 1.133 0 6.341 2.586 12.094 6.76 16.262l3.766-3.76A17.397 17.397 0 0 1 5.31 23.012Z" fill="url(#a)"/><path d="M23.004 5.346c.317 0 .59 0 .907.045l.273-5.3c-.363 0-.772-.045-1.135-.045-6.352 0-12.114 2.582-16.288 6.75l3.766 3.76a17.532 17.532 0 0 1 12.477-5.21Z" fill="url(#b)"/><path d="M23.004 40.679c-.318 0-.59 0-.908-.046l-.272 5.3c.363 0 .771.046 1.134.046 6.352 0 12.115-2.582 16.289-6.75l-3.766-3.76c-3.176 3.262-7.577 5.21-12.477 5.21Z" fill="url(#c)"/><path d="m32.986 8.426 4.492-3.307C33.53 1.948 28.494 0 23.004 0v5.3c3.72.045 7.169 1.178 9.982 3.126Z" fill="url(#d)"/><path d="M46.053 23.011a24.86 24.86 0 0 0-.363-4.122l-4.946 3.67v.452c0 5.21-2.268 9.876-5.853 13.092l3.585 3.94a22.93 22.93 0 0 0 7.577-17.032Z" fill="#21A038"/><path d="M23.004 40.68a17.59 17.59 0 0 1-13.113-5.845l-3.947 3.58a22.91 22.91 0 0 0 17.06 7.564v-5.3Z" fill="url(#e)"/><path d="M11.162 9.92 7.577 5.979C2.904 10.192 0 16.262 0 23.012h5.309c0-5.165 2.268-9.876 5.853-13.092Z" fill="url(#f)"/><defs><linearGradient id="a" x1="621.131" y1="1696.84" x2="79.341" y2="133.264" gradientUnits="userSpaceOnUse"><stop offset=".144" stop-color="#F2E913"/><stop offset=".304" stop-color="#E7E518"/><stop offset=".582" stop-color="#CADB26"/><stop offset=".891" stop-color="#A3CD39"/></linearGradient><linearGradient id="b" x1="158.081" y1="613.557" x2="1534.79" y2="89.758" gradientUnits="userSpaceOnUse"><stop offset=".059" stop-color="#0FA8E0"/><stop offset=".538" stop-color="#0099F9"/><stop offset=".923" stop-color="#0291EB"/></linearGradient><linearGradient id="c" x1="-9.347" y1="634.308" x2="1631.48" y2="264.056" gradientUnits="userSpaceOnUse"><stop offset=".123" stop-color="#A3CD39"/><stop offset=".285" stop-color="#86C339"/><stop offset=".869" stop-color="#21A038"/></linearGradient><linearGradient id="d" x1="-86.066" y1="339.105" x2="1278.48" y2="759.455" gradientUnits="userSpaceOnUse"><stop offset=".057" stop-color="#0291EB"/><stop offset=".79" stop-color="#0C8ACB"/></linearGradient><linearGradient id="e" x1="140.921" y1="478.786" x2="1606.18" y2="1025.38" gradientUnits="userSpaceOnUse"><stop offset=".132" stop-color="#F2E913"/><stop offset=".298" stop-color="#EBE716"/><stop offset=".531" stop-color="#D9E01F"/><stop offset=".802" stop-color="#BBD62D"/><stop offset=".983" stop-color="#A3CD39"/></linearGradient><linearGradient id="f" x1="403.929" y1="1773.25" x2="989.797" y2="251.634" gradientUnits="userSpaceOnUse"><stop offset=".07" stop-color="#A3CD39"/><stop offset=".26" stop-color="#81C55F"/><stop offset=".922" stop-color="#0FA8E0"/></linearGradient></defs></svg>
